!!!COM:	la Rue, Pierre de
!!!CDT:	~1452///-1518/11/20
!!!OPR:	Missa Ista est speciosa
!!!ONM:	1
!!!OTL:	Kyrie
!!!AGN:	Mass; Kyrie
!!!SCT:	Rue1018a
!!!SCA:	Rue1018a
!!!voices-OPR:	5
!!!voices:	5
**kern	**kern	**kern	**kern	**kern
*staff5	*staff4	*staff3	*staff2	*staff1
*Ivox	*Ivox	*Ivox	*Ivox	*Ivox
*I"Bassus2	*I"Bassus1	*I"Tenor	*I"Contra	*I"Discantus
*I'B2	*I'B1	*I'T	*I'C	*I'D
*>[A,B,C]	*>[A,B,C]	*>[A,B,C]	*>[A,B,C]	*>[A,B,C]
*>A	*>A	*>A	*>A	*>A
*clefF4	*clefF4	*clefGv2	*clefGv2	*clefG2
*k[]	*k[]	*k[]	*k[]	*k[]
*M2/1	*M2/1	*M2/1	*M2/1	*M2/1
*met(C)	*met(C)	*met(C)	*met(C)	*met(C)
!!section: Kyrie I
!!!OMD: Kyrie I
=1-	=1-	=1-	=1-	=1-
0r	0E	[0B	[0e	0e
=2	=2	=2	=2	=2
0r	1E	0B]	0e]	0g
.	1E	.	.	.
=3	=3	=3	=3	=3
0r	0F	0A	1c	1a
.	.	.	1d	1a
=4	=4	=4	=4	=4
0r	2.E\	[0B	0e	2.g/
.	4F\	.	.	4a/
.	4G\	.	.	4b\
.	4A\	.	.	4cc\
.	[2G\	.	.	[2b\
=5	=5	=5	=5	=5
0r	4G\]	0B]	2.d\	2b\]
.	4F\	.	.	.
.	2D\	.	.	2.a/
.	.	.	4c\	.
.	1E	.	1B	.
.	.	.	.	4g#i/
.	.	.	.	2g#i/
=6	=6	=6	=6	=6
0AA	1r	0c	0A	0a
.	1E	.	.	.
=7	=7	=7	=7	=7
1.C	1.E	1.A	0r	0r
2BB/	2D\	2G/	.	.
=8	=8	=8	=8	=8
1AA	1C	1F	0r	0r
1GG	[1BB	1E	.	.
=9	=9	=9	=9	=9
0FF	2BB/]	1.D	0r	1r
.	4AA/	.	.	.
.	4GG/	.	.	.
.	1AA	.	.	1a
.	.	4E/	.	.
.	.	4D/	.	.
=10	=10	=10	=10	=10
0EE	0BB	0E	1e	1g
.	.	.	2B\	2e/
.	.	.	[2e\	[2g/
=11	=11	=11	=11	=11
0r	0r	0r	4e\]	4g/]
.	.	.	4d\	4f/
.	.	.	2c\	2e/
.	.	.	2B\	2d/
.	.	.	2e\	2g/
=12	=12	=12	=12	=12
0r	0r	0r	1A	2a/
.	.	.	.	1cc
.	.	.	2c\	.
.	.	.	2d\	[2b\
=13	=13	=13	=13	=13
0EE	1BB	0E	1.e	4b\]
.	.	.	.	4a/
.	.	.	.	4g/
.	.	.	.	4f/
.	2C/	.	.	2e/
.	[2BB/	.	4d\	[2g/
.	.	.	4c\	.
=14	=14	=14	=14	=14
2.GG/	4BB/]	1D	1B	4g/]
.	4AA/	.	.	4f/
.	4BB/	.	.	2e/
4AA/	4C/	.	.	.
2BB/	2D\	[1G	1r	2d/
[2C/	[2E\	.	.	2c/
=15	=15	=15	=15	=15
2C/]	2E\]	1G]	0r	1d
2BB/	2D\	.	.	.
2AA/	2.E\	2.A/	.	1c
[2C/	.	.	.	.
.	4D\	4B\	.	.
=16	=16	=16	=16	=16
4C/]	4E\	2c\	0r	0r
4BB/	4F\	.	.	.
4AA/	1G	2B\	.	.
4GG/	.	.	.	.
1AA	.	1A	.	.
.	2F#i\	.	.	.
=17	=17	=17	=17	=17
0GG	2.G\	0B	2r	0g
.	.	.	2.G/	.
.	4F\	.	.	.
.	1D	.	.	.
.	.	.	4A/	.
.	.	.	2B\	.
=18	=18	=18	=18	=18
0r	0r	0r	2c\	2.e/
.	.	.	2.G/	.
.	.	.	.	4f/
.	.	.	.	2g/
.	.	.	4A/	.
.	.	.	4B\	[2d/
.	.	.	4c\	.
=19	=19	=19	=19	=19
0r	0r	0r	2.d\	4d/]
.	.	.	.	4e/
.	.	.	.	4f/
.	.	.	4B\	4g/
.	.	.	4c\	2a/
.	.	.	4B\	.
.	.	.	4A/	[2g/
.	.	.	4G/	.
=20	=20	=20	=20	=20
0r	0r	0r	1A	2g/]
.	.	.	.	2f#i/
.	.	.	1G	1g
=21	=21	=21	=21	=21
2.C/	0E	0e	2r	2r
.	.	.	1c	2g/
4BB/	.	.	.	.
2AA/	.	.	.	2a/
2GG/	.	.	2B\	2b\
=22	=22	=22	=22	=22
2AA/	1C	1e	2.c\	2e/
2EE/	.	.	.	2g/
.	.	.	4B\	.
2FF/	1D	[1d	2A/	2f/
2GG/	.	.	2B\	[2d/
=23	=23	=23	=23	=23
1BB	2.D\	1d]	1G	4d/]
.	.	.	.	4e/
.	.	.	.	4f/
.	4E\	.	.	4g/
2AA/	2F\	2c\	1r	2a/
2GG/	[2G\	[2B\	.	2b\
=24	=24	=24	=24	=24
1AA	2G\]	2B\]	1r	1cc
.	2F#i\	2A/	.	.
2GG/	[1G	1B	1d	[1b
[2GG/	.	.	.	.
=25	=25	=25	=25	=25
2GG/]	1G]	2r	2d\	2b\]
2EE/	.	1B	2.e\	2g/
1FF	1D	.	.	1a
.	.	.	4d\	.
.	.	2A/	2d\	.
=26	=26	=26	=26	=26
1EE	1r	2B\	2.e\	2.g/
.	.	2c\	.	.
.	.	.	4d\	4a/
1r	1D	[1d	4B\	2b\
.	.	.	4c\	.
.	.	.	4d\	[2a/
.	.	.	4c\	.
=27	=27	=27	=27	=27
0r	4D\	1d]	2.A/	4a/]
.	4E\	.	.	4g/
.	4F\	.	.	2f/
.	4G\	.	4B\	.
.	2A\	1c	2c\	2e/
.	2F\	.	2A/	[2f/
=28	=28	=28	=28	=28
0r	2.G\	1B	2B\	2f/]
.	.	.	2G/	2.e/
.	4E\	.	.	.
.	1F	1A	2A/	.
.	.	.	.	4d/
.	.	.	2F/	2d/
=29	=29	=29	=29	=29
[0EEl	[0El	[0Bl	1G	[0el
.	.	.	2.E/	.
.	.	.	4F/	.
=30	=30	=30	=30	=30
0EE]	0E]	0B]	0Gl	0e]
!!LO:LB:i:g=z
=31||	=31||	=31||	=31||	=31||
*>B	*>B	*>B	*>B	*>B
*clefF4	*clefF4	*clefGv2	*clefGv2	*clefG2
*k[]	*k[]	*k[]	*k[]	*k[]
*M2/1	*M2/1	*M2/1	*M2/1	*M2/1
*met(C2)	*met(C2)	*met(C2)	*met(C2)	*met(C2)
!!section: Christe
!!!OMD: Christe
1r	0E	0r	0r	0r
[1E	.	.	.	.
=32.	=32.	=32.	=32.	=32.
2E\]	0E	0r	0r	0r
2D\	.	.	.	.
2C/	.	.	.	.
2BB/	.	.	.	.
=33	=33	=33	=33	=33
2AA/	2.F\	0r	0A	0r
1D	.	.	.	.
.	4E\	.	.	.
.	4F\	.	.	.
.	4G\	.	.	.
[2C/	[2A\	.	.	.
=34.	=34.	=34.	=34.	=34.
4C/]	2A\]	0r	0A	0r
4BB/	.	.	.	.
4AA/	2.G\	.	.	.
4GG/	.	.	.	.
1AA	.	.	.	.
.	4F#i\	.	.	.
.	2F#i\	.	.	.
=35	=35	=35	=35	=35
4GG/	1G	0B	2B\	0r
4AA/	.	.	.	.
4BB/	.	.	2.d\	.
4C/	.	.	.	.
2D\	2F\	.	.	.
.	.	.	4c\	.
[2E\	[2G\	.	4B\	.
.	.	.	4A/	.
=36.	=36.	=36.	=36.	=36.
2E\]	2G\]	0B	2G/	0r
4D\	4F\	.	1A	.
4C/	4E\	.	.	.
1BB	1D	.	.	.
.	.	.	2G#i/	.
=37	=37	=37	=37	=37
[0AA	2.E\	[0c	[0A	0e
.	4F\	.	.	.
.	2E\	.	.	.
.	[2A\	.	.	.
=38.	=38.	=38.	=38.	=38.
0AA]	2A\]	0c]	0A]	0e
.	4G\	.	.	.
.	4F\	.	.	.
.	1E	.	.	.
=39	=39	=39	=39	=39
0r	[0D	[0d	2r	2.f/
.	.	.	1A	.
.	.	.	.	4e/
.	.	.	.	4f/
.	.	.	.	4g/
.	.	.	2F/	[2a/
=40.	=40.	=40.	=40.	=40.
0r	0D]	0d]	2.B-i\	2a/]
.	.	.	.	2.g/
.	.	.	4G/	.
.	.	.	1A	.
.	.	.	.	4f#i/
.	.	.	.	2f#i/
=41	=41	=41	=41	=41
[0GG	1.G	2.B\	0G	[0g
.	.	4c\	.	.
.	.	4d\	.	.
.	.	4e\	.	.
.	4F\	[2d\	.	.
.	4E\	.	.	.
=42.	=42.	=42.	=42.	=42.
0GG]	4F\	2d\]	1r	0g]
.	4E\	.	.	.
.	4D\	1c	.	.
.	4C/	.	.	.
.	1D	.	1d	.
.	.	2B\	.	.
=43	=43	=43	=43	=43
0C	[0C	[0c	2e\	1r
.	.	.	2.e\	.
.	.	.	.	1g
.	.	.	4d\	.
.	.	.	4c\	.
.	.	.	4B\	.
=44.	=44.	=44.	=44.	=44.
1.FF	0C]	0c]	2.A/	1.a
.	.	.	4F/	.
.	.	.	2A/	.
2GG/	.	.	2B\	2g/
=45	=45	=45	=45	=45
2AA/	0r	0A	[0c	2f/
2BB/	.	.	.	4e/
.	.	.	.	4d/
2C/	.	.	.	2e/
2FF/	.	.	.	[2f/
=46.	=46.	=46.	=46.	=46.
1C	0r	2G/	1c]	2f/]
.	.	2E/	.	2.e/
1D	.	1F	1A	.
.	.	.	.	4d/
.	.	.	.	2d/
=47	=47	=47	=47	=47
0AA	2r	0E	2r	1e
.	2.C/	.	2.c\	.
.	.	.	.	2r
.	4D\	.	4B\	.
.	2E\	.	4A/	[2a/
.	.	.	4G/	.
=48.	=48.	=48.	=48.	=48.
0r	2F\	0r	2A/	4a/]
.	.	.	.	4b\
.	2A\	.	2F/	2cc\
.	1G	.	2G/	2b\
.	.	.	2B\	[2g/
=49	=49	=49	=49	=49
0r	1D	0r	1A	2g/]
.	.	.	.	2f/
.	[1E	.	2G/	2g/
.	.	.	2c\	[2e/
=50.	=50.	=50.	=50.	=50.
0r	1E]	0r	2B\	2e/]
.	.	.	2.A/	4d/
.	.	.	.	4c/
.	1E	.	.	1B
.	.	.	4G#i/	.
.	.	.	2G#i/	.
=51	=51	=51	=51	=51
2.AA/	2r	0r	[0A	0A
.	1E	.	.	.
4BB/	.	.	.	.
2C/	.	.	.	.
[2D\	[2F\	.	.	.
=52.	=52.	=52.	=52.	=52.
2D\]	2F\]	0r	0A]	0r
4C/	4E\	.	.	.
4BB/	4D\	.	.	.
2.AA/	2F\	.	.	.
.	[2E\	.	.	.
4BB/	.	.	.	.
=53	=53	=53	=53	=53
2C/	2E\]	0r	0r	0r
2D\	1A	.	.	.
4C/	.	.	.	.
4BB/	.	.	.	.
4AA/	[2G\	.	.	.
4GG/	.	.	.	.
=54.	=54.	=54.	=54.	=54.
1AA	2G\]	0r	0r	0r
.	2F#i\	.	.	.
1GG	2.G\	.	.	.
.	4Fni\	.	.	.
=55	=55	=55	=55	=55
2r	2E\	[0G	0r	0r
1C	4D\	.	.	.
.	4C/	.	.	.
.	1D	.	.	.
2BB/	.	.	.	.
=56.	=56.	=56.	=56.	=56.
4C/	1C	1G]	2r	0r
4D\	.	.	.	.
4E\	.	.	1c	.
4F\	.	.	.	.
1D	1r	1F	.	.
.	.	.	2B\	.
=57	=57	=57	=57	=57
1.C	0r	0G	2c\	0r
.	.	.	4B\	.
.	.	.	4A/	.
.	.	.	4G/	.
.	.	.	4A/	.
4BB/	.	.	4B\	.
4AA/	.	.	4c\	.
=58.	=58.	=58.	=58.	=58.
2GG/	0r	1E	2B\	0r
2AA/	.	.	1A	.
1BB	.	1D	.	.
.	.	.	2G#i/	.
=59	=59	=59	=59	=59
0AA	1r	0E	0A	1r
.	1C	.	.	1e
=60.	=60.	=60.	=60.	=60.
0EE	2BB/	1.E	0r	1.g
.	1E	.	.	.
.	2D\	2F/	.	2f/
=61	=61	=61	=61	=61
0r	2.C/	2G/	0r	2.e/
.	.	1A	.	.
.	4BB/	.	.	4d/
.	2AA/	.	.	2c/
.	[2E\	2G/	.	[2B/
=62.	=62.	=62.	=62.	=62.
0r	2E\]	2A/	0r	4B/]
.	.	.	.	4A/
.	2C/	2c\	.	1A
.	2D\	1B	.	.
.	2E\	.	.	2G#i/
=63	=63	=63	=63	=63
0AA	1AA	1A	1r	1A
.	1C	1E	1c	1e
=64.	=64.	=64.	=64.	=64.
[0EE	0BB	[0E	1.e	1.g
.	.	.	2d\	2f/
=65	=65	=65	=65	=65
0EE]	1r	0E]	2c\	2e/
.	.	.	4B\	4d/
.	.	.	4A/	4c/
.	1E	.	2G/	2B/
.	.	.	2B\	[2e/
=66.	=66.	=66.	=66.	=66.
0E	0G	0r	2c\	2e/]
.	.	.	2B\	2d/
.	.	.	2c\	2c/
.	.	.	2G/	[2B/
=67	=67	=67	=67	=67
2D\	2F\	0r	2B\	4B/]
.	.	.	.	4A/
2C/	2E\	.	2c\	1A
1BB	1D	.	1d	.
.	.	.	.	2G#i/
=68.	=68.	=68.	=68.	=68.
[0AA	1.E	1.A	0c	[0A
.	2C/	2G/	.	.
=69	=69	=69	=69	=69
0AA]	[0C	2F/	2r	0A]
.	.	2E/	1e	.
.	.	1F	.	.
.	.	.	2d\	.
=70.	=70.	=70.	=70.	=70.
0AA	0C]	0E	2c\	1r
.	.	.	2B\	.
.	.	.	1A	1e
=71	=71	=71	=71	=71
[0EEl	1r	[0El	[0Bl	1.g
.	1E	.	.	.
.	.	.	.	2e/
=72.	=72.	=72.	=72.	=72.
0EE]	0Gl	0E]	0B]	0el
!!LO:LB:i:g=z
=73||	=73||	=73||	=73||	=73||
*>C	*>C	*>C	*>C	*>C
*clefF4	*clefF4	*clefGv2	*clefGv2	*clefG2
*k[]	*k[]	*k[]	*k[]	*k[]
*M2/1	*M2/1	*M2/1	*M2/1	*M2/1
*met(C)	*met(C)	*met(C)	*met(C)	*met(C)
!!section: Kyrie II
!!!OMD: Kyrie II
0r	2.C/	0c	0r	2.e/
.	4D\	.	.	4f/
.	2E\	.	.	2g/
.	[2F\	.	.	[2a/
=74	=74	=74	=74	=74
0r	2F\]	0c	0r	2a/]
.	2G\	.	.	2g/
.	1A	.	.	2e/
.	.	.	.	2f/
=75	=75	=75	=75	=75
0r	2E\	0B	0r	1g
.	1G	.	.	.
.	.	.	.	4e/
.	.	.	.	4f/
.	2E\	.	.	4g/
.	.	.	.	4e/
=76	=76	=76	=76	=76
0r	4A\	1A	0r	2f/
.	4G\	.	.	.
.	4F\	.	.	1e
.	4E\	.	.	.
.	1F	1A	.	.
.	.	.	.	2d/
=77	=77	=77	=77	=77
0r	2r	4B\	0r	1g
.	.	4c\	.	.
.	2G\	4d\	.	.
.	.	4B\	.	.
.	4A\	2c\	.	2f/
.	4G\	.	.	.
.	4F\	[2B\	.	[2e/
.	4E\	.	.	.
=78	=78	=78	=78	=78
0r	1F	2B\]	0r	2e/]
.	.	2A/	.	2d/
.	[1E	[1B	.	1e
=79	=79	=79	=79	=79
2.EE/	0E_	1B]	2.G/	0r
4FF/	.	.	4A/	.
2GG/	.	1r	2B\	.
[2AA/	.	.	[2c\	.
=80	=80	=80	=80	=80
4AA/]	1E]	0r	2c\]	0r
4BB/	.	.	.	.
4C/	.	.	4B\	.
4D\	.	.	4A/	.
2.E\	1r	.	2G/	.
.	.	.	2c\	.
4C/	.	.	.	.
=81	=81	=81	=81	=81
4D\	0r	0r	2B\	0r
4C/	.	.	.	.
4BB/	.	.	2.A/	.
4AA/	.	.	.	.
1BB	.	.	.	.
.	.	.	4G#i/	.
.	.	.	2G#i/	.
=82	=82	=82	=82	=82
0AA	1r	0r	0A	0e
.	[1E	.	.	.
=83	=83	=83	=83	=83
0r	1E]	0B	0r	1.g
.	[1G	.	.	.
.	.	.	.	4f/
.	.	.	.	4e/
=84	=84	=84	=84	=84
0r	2G\]	1.d	0r	2.d/
.	4F\	.	.	.
.	4E\	.	.	4e/
.	2.D\	.	.	2f/
.	.	4c\	.	2g/
.	4E\	4B\	.	.
=85	=85	=85	=85	=85
0r	2F\	2.A/	0r	1a
.	2G\	.	.	.
.	.	4B\	.	.
.	1A	2c\	.	2.e/
.	.	2d\	.	.
.	.	.	.	4f/
=86	=86	=86	=86	=86
0r	[0E	1.e	0r	4g/
.	.	.	.	4a/
.	.	.	.	2b\
.	.	.	.	2cc\
.	.	2d\	.	[2b\
=87	=87	=87	=87	=87
0r	0E]	2c\	0r	4b\]
.	.	.	.	4a/
.	.	4B\	.	1a
.	.	4A/	.	.
.	.	1B	.	.
.	.	.	.	2g#i/
=88	=88	=88	=88	=88
2r	0r	0r	1A	0a
2.AA/	.	.	.	.
.	.	.	2.A/	.
4BB/	.	.	.	.
2C/	.	.	.	.
.	.	.	4G/	.
=89	=89	=89	=89	=89
2D\	0r	0r	2F/	0r
2.E\	.	.	2E/	.
.	.	.	1F	.
4D\	.	.	.	.
2D\	.	.	.	.
=90	=90	=90	=90	=90
1E	2r	0r	2E/	0r
.	2.E\	.	2.G/	.
2.AA/	.	.	.	.
.	4D\	.	4F/	.
.	4C/	.	2E/	.
4GG/	4BB/	.	.	.
=91	=91	=91	=91	=91
2FF/	2AA/	0r	2D/	0r
2EE/	1BB	.	1E	.
1FF	.	.	.	.
.	2AA/	.	2D/	.
=92	=92	=92	=92	=92
0EE	0BB	1.B	0E	2r
.	.	.	.	2.g/
.	.	.	.	4a/
.	.	2G/	.	2b\
=93	=93	=93	=93	=93
0r	2r	2A/	0r	2cc\
.	2.E\	2G/	.	2.b\
.	.	1E	.	.
.	4F\	.	.	4a/
.	2G\	.	.	4g/
.	.	.	.	4f/
=94	=94	=94	=94	=94
0r	1C	2r	0r	1e
.	.	2G/	.	.
.	2F\	2A/	.	2r
.	2E\	[2c\	.	2g/
=95	=95	=95	=95	=95
0r	1C	2c\]	0r	2a/
.	.	2e\	.	1cc
.	1G	1d	.	.
.	.	.	.	2b\
=96	=96	=96	=96	=96
2r	2r	0c	2r	2.a/
2.AA/	2.C/	.	2E/	.
.	.	.	.	4g/
.	.	.	2F/	1e
4BB/	4D\	.	.	.
4C/	4E\	.	2A/	.
4D\	4F\	.	.	.
=97	=97	=97	=97	=97
2E\	2G\	0r	2G/	0r
2F\	2A\	.	2.c\	.
1D	2.F\	.	.	.
.	.	.	4B\	.
.	.	.	2B\	.
.	4G\	.	.	.
=98	=98	=98	=98	=98
0C	1G	0e	1.c	0g
.	2G\	.	.	.
.	[2E\	.	4B\	.
.	.	.	4A/	.
=99	=99	=99	=99	=99
1C	2E\]	0c	1G	0e
.	2C/	.	.	.
[1AA	[1C	.	[1A	.
=100	=100	=100	=100	=100
1AA]	1C]	1c	0A_	1.a
[1D	[1F	[1d	.	.
.	.	.	.	[2f/
=101	=101	=101	=101	=101
1D]	1F]	1d]	1A]	4f/]
.	.	.	.	4e/
.	.	.	.	1d
1GG	1D	1B	2G/	.
.	.	.	2B\	4d/
.	.	.	.	4e/
=102	=102	=102	=102	=102
0AA	0C	0c	2.A/	2f/
.	.	.	.	1e
.	.	.	4G/	.
.	.	.	2E/	.
.	.	.	2A/	4d/
.	.	.	.	4c/
=103	=103	=103	=103	=103
[0GG	2r	[0d	0D	0B
.	1G	.	.	.
.	4F\	.	.	.
.	4E\	.	.	.
=104	=104	=104	=104	=104
0GG]	2D\	0d]	0r	2r
.	1G	.	.	1b
.	2G\	.	.	2b\
=105	=105	=105	=105	=105
0r	2A\	1.c	0r	2.cc\
.	1F	.	.	.
.	.	.	.	4b\
.	.	.	.	2a/
.	2G\	2B\	.	[2g/
=106	=106	=106	=106	=106
2r	1D	1A	1r	2g/]
2D\	.	.	.	2f/
2E\	1r	1G	2r	2g/
[2C/	.	.	2G/	[2e/
=107	=107	=107	=107	=107
4C/]	1C	2E/	2A/	2e/]
4BB/	.	.	.	.
2AA/	.	2F/	2c\	2a/
2GG/	2D\	1G	2B\	2b\
[2C/	2E\	.	[2e\	[2g/
=108	=108	=108	=108	=108
4C/]	1C	2E/	4e\]	2g/]
4BB/	.	.	4d\	.
2AA/	.	2F/	2c\	2a/
2GG/	2D\	2.G/	1B	2b\
2EE/	2E\	.	.	2g/
.	.	4F/	.	.
=109	=109	=109	=109	=109
2FF/	2AA/	2D/	2r	2a/
2GG/	2BB/	1E	2.e\	2g/
1AA	2.C/	.	.	1e
.	.	.	4d\	.
.	.	[2A/	4c\	.
.	4D\	.	4A/	.
=110	=110	=110	=110	=110
1EE	1BB	2A/]	1B	2e/
.	.	2G/	.	2.g/
2r	2r	2.A/	2c\	.
.	.	.	.	4e/
2AA/	2C/	.	2A/	2f/
.	.	4G/	.	.
=111	=111	=111	=111	=111
2GG/	2BB/	2E/	1B	2.g/
2EE/	2GG/	2G/	.	.
.	.	.	.	4f/
2FF/	2AA/	2F/	1r	2d/
2GG/	2BB/	2E/	.	[2e/
=112	=112	=112	=112	=112
2AA/	2C/	1F	1r	2e/]
2BB/	2D\	.	.	2d/
2C/	2AA/	[1El	2r	[1el
[2AA/	[2C/	.	2A/	.
=113	=113	=113	=113	=113
2AA/]	2C/]	0E_	1.c	0e_
4GG/	4BB/	.	.	.
4FF/	4AA/	.	.	.
[1EE	2.GG/	.	.	.
.	.	.	4B\	.
.	4AA/	.	4A/	.
=114	=114	=114	=114	=114
1EE]	1BB	0E]	2.G/	0e]
.	.	.	4A/	.
1EEl	1BBl	.	1Bl	.
==	==	==	==	==
*-	*-	*-	*-	*-
!!!RDF**kern: l=long note in original notation
!!!RDF**kern: i=editorial accidental
!!!ENC:	Chris Gage 05-16-2013
!!!END:	2013/08/02/
!!!EED:	Jesse Rodin
!!!EEV:	2013/08/05/
!!!ONB:	Translated from MusicXML and edited on 2013/08/05/ by Craig Sapp
!!muse2ps: T^@{OPR}^u^@{ONM}{. }@{OTL}^C^@{COM}^i2I150v85,85,85,85,130Q16
